images/icons/twitch.svg

<?xml version="1.0" encoding="UTF-8" standalone="no"?>
<!-- Uploaded to: SVG Repo, www.svgrepo.com, Generator: SVG Repo Mixer Tools -->
<svg width="800px" height="800px" viewBox="-6 0 268 268" version="1.1" xmlns="http://www.w3.org/2000/svg" xmlns:xlink="http://www.w3.org/1999/xlink" preserveAspectRatio="xMidYMid">
    <g>
        <path d="M17.4579119,0 L0,46.5559188 L0,232.757287 L63.9826001,232.757287 L63.9826001,267.690956 L98.9144853,267.690956 L133.811571,232.757287 L186.171922,232.757287 L256,162.954193 L256,0 L17.4579119,0 Z M40.7166868,23.2632364 L232.73141,23.2632364 L232.73141,151.29179 L191.992415,192.033461 L128,192.033461 L93.11273,226.918947 L93.11273,192.033461 L40.7166868,192.033461 L40.7166868,23.2632364 Z M104.724985,139.668381 L127.999822,139.668381 L127.999822,69.843872 L104.724985,69.843872 L104.724985,139.668381 Z M168.721862,139.668381 L191.992237,139.668381 L191.992237,69.843872 L168.721862,69.843872 L168.721862,139.668381 Z" fill="#5A3E85">
</path>
    </g>
</svg>

<?xml version="1.0" encoding="UTF-8" standalone="no"?>
<!-- Uploaded to: SVG Repo, www.svgrepo.com, Generator: SVG Repo Mixer Tools -->

<svg
   width="800px"
   height="800px"
   viewBox="-6 0 268 268"
   version="1.1"
   preserveAspectRatio="xMidYMid"
   id="svg6"
   sodipodi:docname="twitch.svg"
   inkscape:version="1.1.2 (0a00cf5339, 2022-02-04)"
   xmlns:inkscape="http://www.inkscape.org/namespaces/inkscape"
   xmlns:sodipodi="http://sodipodi.sourceforge.net/DTD/sodipodi-0.dtd"
   xmlns="http://www.w3.org/2000/svg"
   xmlns:svg="http://www.w3.org/2000/svg">
  <defs
     id="defs10" />
  <sodipodi:namedview
     id="namedview8"
     pagecolor="#ffffff"
     bordercolor="#666666"
     borderopacity="1.0"
     inkscape:pageshadow="2"
     inkscape:pageopacity="0.0"
     inkscape:pagecheckerboard="0"
     showgrid="false"
     inkscape:zoom="1.04875"
     inkscape:cx="399.52324"
     inkscape:cy="399.52324"
     inkscape:window-width="1920"
     inkscape:window-height="1011"
     inkscape:window-x="1920"
     inkscape:window-y="32"
     inkscape:window-maximized="1"
     inkscape:current-layer="g4" />
  <g
     id="g4">
    <path
       d="M 17.457912,0 0,46.555919 V 232.75729 h 63.9826 v 34.93367 h 34.931885 l 34.897085,-34.93367 h 52.36035 L 256,162.95419 V 0 Z M 40.716687,23.263236 H 232.73141 V 151.29179 l -40.739,40.74167 H 128 L 93.11273,226.91895 V 192.03346 H 40.716687 Z M 104.72499,139.66838 h 23.27483 V 69.843872 h -23.27483 z m 63.99687,0 h 23.27038 V 69.843872 h -23.27038 z"
       fill="#5a3e85"
       id="path2"
       style="fill:#f9f9f9" />
  </g>
</svg>
